X:232
T:East Neuk of Fife
R:Country Dance
C:James Oswald
B:The Athole Collection
M:C|
L:1/8
K:G
D|G2G2G2Bc|dBGB dBGB|A2A2A2gf|edef g2fe|dcBA GABc|
dBGB d2cB|ABcd BcAB|B2E2E2:|
|:dc|B2G2G2dc|B2G2G2ed|c2A2A2 eg|a2A2A2dc|B2G2d2G2|
g2G2d2cB|ABcd BcAB|G2E2E2:|

